static/images/osteopathie-shape-2.svg

<svg width="523" height="775" viewBox="0 0 523 775" fill="none" xmlns="http://www.w3.org/2000/svg">
<path d="M90.9752 164.344C61.4598 238.551 43.6456 286.687 14.4145 361.068C0.625998 395.636 -10.7571 441.263 17.9454 464.93C26.4525 472.104 37.2273 475.583 47.0104 480.997C77.4965 497.935 95.4618 531.445 104.732 565.097C114.002 598.749 116.163 634.104 124.287 668.031C131.807 699.437 145.619 730.79 171.389 750.312C195.344 768.329 226.461 773.724 256.599 774.022C384.922 776.259 507.949 696.629 571.185 585.02C634.421 473.412 641.817 335.181 604.848 212.178C584.537 144.57 548.891 77.7255 489.159 39.9162C451.422 15.9884 406.459 5.42522 361.941 1.78442C304.106 -2.78816 244.209 4.28241 192.976 31.3349C141.743 58.3874 100.302 107.091 90.9752 164.344Z" fill="#FFDFAF"/>
</svg>

<svg width="523" height="775" fill="none" xmlns="http://www.w3.org/2000/svg"><path d="M90.975 164.344c-29.515 74.207-47.33 122.343-76.56 196.724-13.789 34.568-25.172 80.195 3.53 103.862 8.508 7.174 19.282 10.653 29.065 16.067 30.486 16.938 48.452 50.448 57.722 84.1 9.27 33.652 11.431 69.007 19.555 102.934 7.52 31.406 21.332 62.759 47.102 82.281 23.955 18.017 55.072 23.412 85.21 23.71 128.323 2.237 251.35-77.393 314.586-189.002 63.236-111.608 70.632-249.839 33.663-372.842-20.311-67.608-55.957-134.452-115.689-172.262-37.737-23.928-82.7-34.49-127.218-38.132-57.835-4.572-117.732 2.498-168.965 29.55-51.233 27.053-92.674 75.757-102 133.01z" fill="#FFDFAF"/></svg>
